X:1
T:A Worship Hymn
T:A Worship Hymn
T:Scott Werdebaugh
T:Scott Werdebaugh, 2018
T:© 2018 Scott Werdebaugh &amp; New Heart Music - May freely copy and use for Christian worship and devotions with no alterations. All other rights reserved.
T:© 2018 Scott Werdebaugh &amp; New Heart Music - May freely copy and use for Christian worship and devotions with no alterations. All other rights reserved.
C:Scott Werdebaugh
Z:© 2018 Scott Werdebaugh & New Heart Music - May freely copy and use for
Z:Christian worship and devotions with no alterations. All other rights reserved.
%%score ( 1 2 ) ( 3 4 )
L:1/8
Q:1/4=120
M:3/4
K:D
V:1 treble 
V:2 treble 
V:3 bass 
V:4 bass 
V:1
"^Worshipfully" [DF]4 [EG]2 | [FA]4 [DF][DF] | [GB]4 [FA]2 | [DF]4 [FA]2 | [GB]4 [Gd]2 | %5
w: 1.~I will|sing to the|Lord, for|He is|high- ly|
 [Ac]4 [GB]2 | [FA]4 !breath![FA]2 | [Bd]4 [Bd][Ac] | [GB]4 [FA][EG] | [FA]4 z2 | [Gd]4 [Bd][Ac] | %11
w: ex- alt-|ed; The|LORD is my|strength and my|song,|He has be-|
 [GB]4 [FA]2 | [GB]4 [Gc]2 | [Fd]4 z2 | [Gd]2 [Gc]2 [GB]2 | [FA]4 [FA]2 | [GB]4 [Gd]2 | %17
w: come my|sal- va-|tion;|He is my|God, and|I will|
 ([Ge]4 [Gd]2) | [Fd]6 ||S"^Refrain" [Fd]4 [Fd]2 | [Fd]4 [FB][FA] | [DB]4 [Ec]2 | [DB]4 [DA]2 | %23
w: praise *|Him.|Who is|like You a-|mong the|gods of|
 [DF]4 D2 | [CE]4 z2 | [Fd]4 [Fd]2 | [Fd]4 [FB][FA] | [DB]4 [Ec][Ec] | [Fd]4 [Fd]2 | [Ec]4 z2 | %30
w: man, O|LORD?|Who is|like You, ma-|jes- tic in|ho- li-|ness,|
 [Bd]2 [Bd]2 [GB]2 | [FA]4 [FA]2 | [DB]4 [Ec]2 | [Fd]4 !fermata![Ec]2 | [Bd]2 [Ac]2 [GB]2 | %35
w: Awe- some in|prais- es,|work- ing|won- ders?|You have cre-|
 [FA]4 [DF]2 | D4 [CE]2 | [DF]4 z2 | [Bd]2 [Ac]2 [GB]2 | [FA]4 [DF]2 | (A2 G2) [DF]2 | %41
w: at- ed|all that|is;|You are the|One who|fires * the|
 [CE]4 !breath!D2 | D4 [DF]2 | [DG]4 [DB]2 | [Fd]4 [Ec]2 | [Ec]6 | [Fd]6 | [Fd]2 [Ec]2 [DB]2 | %48
w: sun. O|God of|won- der,|strength, and|glo-|ry;|You who have|
 [FA]4 [EG]2 | [GB]2 [FA]2 [EG]2 | [DF]4 z2 | [GB]2 [FA]2 [EG]2 | [FA]4 [FA]2 | [GB]4 [Gd]2 | %54
w: loved and|saved ev- en|me.|My LORD and|God shall|reign e-|
 [Ge]4 [Gd]2 | [Fd]6!fine! || [Fd]4 [Ec]2 | [Fd]4 [FA]2 | [GB]4 [GB][Gc] | [FB]4 [FA][EG] | [FA]6 | %61
w: ter- nal-|ly!|2.~Your right|hand, O|LORD, is ma-|jes- tic in|power,|
 (d2 c2) [GB]2 | [Fd]4 [FA][FA] | [GB]4 [Bd][Bd] | [Ac]4 [GB]2 | [FA]4 z2 | [Gd]4 [Bd][Ac] | %67
w: Your * right|hand, O LORD,|shat- ters the|en- e-|my.|And in the|
 [GB]4 [FA]2 | [GB]4 [Gc]2 | [Fd]4 [GB]2 | [FA]4 z2 | [Gd]2 [Ac]2 [GB]2 | [FA]4 [FA]2 | %73
w: great- ness|of Your|ex- cel-|lence,|You over- throw|all who|
 [GB]4 [Ac][Bd] | (e4 d2) | !fermata![Fd]4 z2!D.S.! |] x6 | x6 |] %78
w: rise up a-|gainst *|You.|||
V:2
 x6 | x6 | x6 | x6 | x6 | x6 | x6 | x6 | x6 | x6 | x6 | x6 | x6 | x6 | x6 | x6 | x6 | x6 | x6 || %19
 x6 | x6 | x6 | x6 | x4 D2 | x6 | x6 | x6 | x6 | x6 | x6 | x6 | x6 | x6 | x6 | x6 | x6 | D4 x2 | %37
 x6 | x6 | x6 | D4 x2 | x4 D2 | D4 x2 | x6 | x6 | x6 | x6 | x6 | x6 | x6 | x6 | x6 | x6 | x6 | x6 | %55
 x6 || x6 | x6 | x6 | x6 | x6 | G4 x2 | x6 | x6 | x6 | x6 | x6 | x6 | x6 | x6 | x6 | x6 | x6 | x6 | %74
 G6 | x6 |] x6 | x6 |] %78
V:3
 [D,A,]4 [A,C]2 | [D,A,]4 [D,A,][D,A,] | [D,G,]4 [D,A,]2 | [D,A,]4 [D,A,]2 | [D,G,]4 [G,B,]2 | %5
 [E,A,]4 [D,G,]2 | [D,A,]4 !breath![D,A,]2 | [G,,G,]4 [G,,G,][A,,E,] | [D,G,]4 [D,A,][A,C] | %9
 [D,A,]4 z2 | [G,B,]4 [G,,G,][E,A,] | [D,G,]4 [D,A,]2 | [D,G,]4 [E,A,]2 | [D,A,]4 z2 | %14
 [G,B,]2 [E,A,]2 [D,G,]2 | [D,A,]4 [D,A,]2 | [D,G,]4 [G,B,]2 | [A,C]4 [G,B,]2 | [D,A,]6 || %19
 [D,A,]4 [D,A,]2 | [D,A,]4 [D,B,][D,A,] | [G,,G,]4 [A,,A,]2 | [G,,G,]4 [D,F,]2 | [D,A,]4 [D,F,]2 | %24
 [A,,A,]4 z2 | [D,A,]4 [D,A,]2 | [D,A,]4 [D,B,][D,A,] | [G,B,]4 [A,,A,][A,,A,] | [D,A,]4 [D,A,]2 | %29
 [A,,A,]4 z2 | [G,,G,]2 [G,,G,]2 [D,G,]2 | [D,A,]4 [D,A,]2 | [G,,G,]4 [A,,A,]2 | %33
 [D,A,]4 !fermata![A,,A,]2 | [G,,G,]2 [A,,E,]2 [G,,D,]2 | [D,A,]4 [D,A,]2 | [D,F,]4 [A,,A,]2 | %37
 [D,A,]4 z2 | [G,,G,]2 [A,,E,]2 [G,,D,]2 | [D,A,]4 [D,A,]2 | (F,2 E,2) [D,A,]2 | [A,,A,]4 [D,A,]2 | %42
 [D,F,]4 [D,A,]2 | [G,,B,]4 [G,,G,]2 | [D,A,]4 [A,,A,]2 | [A,,A,]6 | [D,A,]6 | %47
 [D,A,]2 [A,,A,]2 [G,,G,]2 | [D,A,]4 [C,A,]2 | [D,G,]2 [D,A,]2 [C,A,]2 | [D,A,]4 z2 | %51
 [D,G,]2 [D,A,]2 [C,A,]2 | [D,A,]4 [D,A,]2 | [D,G,]4 [G,B,]2 | [A,C]4 [G,B,]2 | !fermata![D,A,]6 || %56
 x6 | [D,A,]4 [A,,A,]2 | [D,A,]4 [D,A,]2 | [D,G,]4 [D,G,][E,A,] | [D,B,]4 [D,A,][C,A,] | [D,A,]6 | %62
 !breath![G,,G,]2 [A,,E,]2 [G,,D,]2 | [D,A,]4 [D,A,][D,A,] | [D,G,]4 [G,,G,][G,,G,] | %65
 [E,A,]4 [D,G,]2 | [D,A,]4 z2 | [G,B,]4 [G,,G,][A,,E,] | [D,G,]4 [D,A,]2 | [D,G,]4 [E,A,]2 | %70
 [D,A,]4 [D,G,]2 | [D,A,]4 z2 | [G,B,]2 [E,A,]2 [D,G,]2 | [D,A,]4 [D,A,]2 | [D,G,]4 [E,A,][G,,G,] | %75
 ([A,C]4 B,2) |] !fermata![D,A,]4 z2 | x6 |] %78
V:4
 x6 | x6 | x6 | x6 | x6 | x6 | x6 | x6 | x6 | x6 | x6 | x6 | x6 | x6 | x6 | x6 | x6 | x6 | x6 || %19
 x6 | x6 | x6 | x6 | x6 | x6 | x6 | x6 | x6 | x6 | x6 | x6 | x6 | x6 | x6 | x6 | x6 | x6 | x6 | %38
 x6 | x6 | D,4 x2 | x6 | x6 | x6 | x6 | x6 | x6 | x6 | x6 | x6 | x6 | x6 | x6 | x6 | x6 | x6 || %56
 x6 | x6 | x6 | x6 | x6 | x6 | x6 | x6 | x6 | x6 | x6 | x6 | x6 | x6 | x6 | x6 | x6 | x6 | x6 | %75
 G,6 |] x6 | x6 |] %78

